; G-Code generated by Simplify3D(R) Version 4.1.2
; Jul 5, 2022 at 5:32:10 PM
; Settings Summary
;   processName,Process M1-02
;   applyToModels,Paperclip_BENE 
;   profileName,Default (modified)
;   profileVersion,2018-07-18 10:57:17
;   baseProfile,S3DProfile_Pi3Mk3_ClintGoss_BreathFlute_Pristine_20180504_Core
;   printMaterial,PET
;   printQuality,High
;   printExtruders,
;   extruderName,Primary Extruder
;   extruderToolheadNumber,0
;   extruderDiameter,1
;   extruderAutoWidth,0
;   extruderWidth,1
;   extrusionMultiplier,0.95
;   extruderUseRetract,1
;   extruderRetractionDistance,1
;   extruderExtraRestartDistance,0
;   extruderRetractionZLift,0
;   extruderRetractionSpeed,2700
;   extruderUseCoasting,0
;   extruderCoastingDistance,0.3
;   extruderUseWipe,0
;   extruderWipeDistance,2
;   primaryExtruder,0
;   layerHeight,0.7
;   topSolidLayers,0
;   bottomSolidLayers,0
;   perimeterOutlines,3
;   printPerimetersInsideOut,1
;   startPointOption,3
;   startPointOriginX,0
;   startPointOriginY,50
;   sequentialIslands,0
;   spiralVaseMode,0
;   firstLayerHeightPercentage,100
;   firstLayerWidthPercentage,100
;   firstLayerUnderspeed,0.6
;   useRaft,0
;   raftExtruder,0
;   raftTopLayers,3
;   raftBaseLayers,2
;   raftOffset,3
;   raftSeparationDistance,0.14
;   raftTopInfill,100
;   aboveRaftSpeedMultiplier,0.3
;   useSkirt,0
;   skirtExtruder,0
;   skirtLayers,1
;   skirtOutlines,1
;   skirtOffset,3
;   usePrimePillar,0
;   primePillarExtruder,999
;   primePillarWidth,12
;   primePillarLocation,7
;   primePillarSpeedMultiplier,1
;   useOozeShield,0
;   oozeShieldExtruder,999
;   oozeShieldOffset,2
;   oozeShieldOutlines,1
;   oozeShieldSidewallShape,1
;   oozeShieldSidewallAngle,30
;   oozeShieldSpeedMultiplier,1
;   infillExtruder,0
;   internalInfillPattern,Rectilinear
;   externalInfillPattern,Rectilinear
;   infillPercentage,100
;   outlineOverlapPercentage,10
;   infillExtrusionWidthPercentage,100
;   minInfillLength,2
;   infillLayerInterval,1
;   internalInfillAngles,45,-45
;   overlapInternalInfillAngles,0
;   externalInfillAngles,45,-45
;   generateSupport,0
;   supportExtruder,0
;   supportInfillPercentage,40
;   supportExtraInflation,0
;   supportBaseLayers,0
;   denseSupportExtruder,0
;   denseSupportLayers,0
;   denseSupportInfillPercentage,70
;   supportLayerInterval,1
;   supportHorizontalPartOffset,0.3
;   supportUpperSeparationLayers,1
;   supportLowerSeparationLayers,1
;   supportType,0
;   supportGridSpacing,4
;   maxOverhangAngle,45
;   supportAngles,0
;   temperatureName,Primary Extruder,Heated Bed
;   temperatureNumber,0,0
;   temperatureSetpointCount,1,1
;   temperatureSetpointLayers,1,1
;   temperatureSetpointTemperatures,210,60
;   temperatureStabilizeAtStartup,1,1
;   temperatureHeatedBed,0,1
;   fanLayers,1,2
;   fanSpeeds,0,100
;   blipFanToFullPower,0
;   adjustSpeedForCooling,1
;   minSpeedLayerTime,20
;   minCoolingSpeedSlowdown,40
;   increaseFanForCooling,0
;   minFanLayerTime,45
;   maxCoolingFanSpeed,100
;   increaseFanForBridging,0
;   bridgingFanSpeed,100
;   use5D,1
;   relativeEdistances,0
;   allowEaxisZeroing,1
;   independentExtruderAxes,0
;   includeM10123,0
;   stickySupport,1
;   applyToolheadOffsets,0
;   gcodeXoffset,0
;   gcodeYoffset,0
;   gcodeZoffset,0
;   overrideMachineDefinition,1
;   machineTypeOverride,0
;   strokeXoverride,250
;   strokeYoverride,210
;   strokeZoverride,210
;   originOffsetXoverride,0
;   originOffsetYoverride,0
;   originOffsetZoverride,0
;   homeXdirOverride,-1
;   homeYdirOverride,-1
;   homeZdirOverride,-1
;   flipXoverride,1
;   flipYoverride,-1
;   flipZoverride,1
;   toolheadOffsets,0,0|0,0|0,0|0,0|0,0|0,0
;   overrideFirmwareConfiguration,1
;   firmwareTypeOverride,RepRap (Marlin/Repetier/Sprinter)
;   GPXconfigOverride,r2
;   baudRateOverride,115200
;   overridePrinterModels,1
;   printerModelsOverride
;   startingGcode,M115 U3.0.7 ; use the latest firmware version,G28 W ; home all axes without mesh bed leveling,G80 ; run mesh bed leveling routine,G1 Y-3.0 F1000.0 ; prepare to prime,G92 E0 ; reset extrusion distance,G1 X60.0 E9.0  F1000.0 ; priming,G1 X100.0 E12.5  F1000.0 ; priming
;   layerChangeGcode,
;   retractionGcode,
;   toolChangeGcode,
;   endingGcode,,M106 S0 ; turn off cooling fan,M104 S0 ; turn off extruder,M140 S0 ; turn off bed,G1 X0 Y200 ; part removal,M84 ; disable motors
;   exportFileFormat,gcode
;   celebration,0
;   celebrationSong,Funky Town
;   postProcessing,
;   defaultSpeed,1020
;   outlineUnderspeed,1
;   solidInfillUnderspeed,1
;   supportUnderspeed,0.8
;   rapidXYspeed,4800
;   rapidZspeed,600
;   minBridgingArea,50
;   bridgingExtraInflation,1
;   bridgingExtrusionMultiplier,1
;   bridgingSpeedMultiplier,1
;   useFixedBridgingAngle,0
;   fixedBridgingAngle,0
;   applyBridgingToPerimeters,1
;   filamentDiameters,1.75|1.75|1.75|1.75|1.75|1.75
;   filamentPricesPerKg,46|46|46|46|46|46
;   filamentDensities,1.25|1.25|1.25|1.25|1.25|1.25
;   useMinPrintHeight,0
;   minPrintHeight,0.24
;   useMaxPrintHeight,0
;   maxPrintHeight,1.64
;   useDiaphragm,0
;   diaphragmLayerInterval,20
;   robustSlicing,1
;   mergeAllIntoSolid,0
;   onlyRetractWhenCrossingOutline,0
;   retractBetweenLayers,0
;   useRetractionMinTravel,1
;   retractionMinTravel,3
;   retractWhileWiping,0
;   onlyWipeOutlines,0
;   avoidCrossingOutline,0
;   maxMovementDetourFactor,30
;   toolChangeRetractionDistance,12
;   toolChangeExtraRestartDistance,-0.5
;   toolChangeRetractionSpeed,600
;   externalThinWallType,0
;   internalThinWallType,0
;   thinWallAllowedOverlapPercentage,40
;   singleExtrusionMinLength,1
;   singleExtrusionMinPrintingWidthPercentage,50
;   singleExtrusionMaxPrintingWidthPercentage,200
;   singleExtrusionEndpointExtension,0.4
;   horizontalSizeCompensation,0
G90
M82
M106 S0
M140 S60
M190 S60
M104 S210 T0
M109 S210 T0
M115 U3.0.7 ; use the latest firmware version
G28 W ; home all axes without mesh bed leveling
G80 ; run mesh bed leveling routine
G1 Y-3.0 F1000.0 ; prepare to prime
G92 E0 ; reset extrusion distance
G1 X60.0 E9.0  F1000.0 ; priming
G1 X100.0 E12.5  F1000.0 ; priming
; process Process M1-02
; layer 1, Z = 0.700
T0
G92 E0.0000
G1 E-1.0000 F2700
; feature inner perimeter
; tool H0.700 W1.000
G1 Z0.700 F600
G1 X14.772 Y63.891 F4800
G1 E0.0000 F2700
G92 E0.0000
G1 X13.963 Y63.891 E0.2235 F612
G1 X13.963 Y25.422 E10.8592
G1 X14.015 Y24.168 E11.2061
G1 X14.166 Y22.954 E11.5444
G1 X14.418 Y21.756 E11.8829
G1 X14.767 Y20.583 E12.2212
G1 X15.212 Y19.443 E12.5595
G1 X15.749 Y18.343 E12.8979
G1 X16.376 Y17.292 E13.2362
G1 X17.087 Y16.296 E13.5746
G1 X17.878 Y15.362 E13.9129
G1 X18.743 Y14.497 E14.2513
G1 X19.677 Y13.706 E14.5896
G1 X20.673 Y12.995 E14.9280
G1 X21.724 Y12.368 E15.2663
G1 X22.824 Y11.831 E15.6047
G1 X23.964 Y11.386 E15.9430
G1 X25.137 Y11.037 E16.2814
G1 X26.335 Y10.786 E16.6198
G1 X27.549 Y10.634 E16.9581
G1 X28.772 Y10.584 E17.2964
G1 X29.994 Y10.634 E17.6348
G1 X31.209 Y10.786 E17.9731
G1 X32.407 Y11.037 E18.3115
G1 X33.579 Y11.386 E18.6498
G1 X34.720 Y11.831 E18.9882
G1 X35.819 Y12.368 E19.3265
G1 X36.870 Y12.995 E19.6649
G1 X37.866 Y13.706 E20.0032
G1 X38.800 Y14.497 E20.3416
G1 X39.665 Y15.362 E20.6799
G1 X40.456 Y16.296 E21.0183
G1 X41.168 Y17.292 E21.3566
G1 X41.299 Y17.512 E21.4275
G1 X41.794 Y18.343 E21.6950
G1 X42.332 Y19.443 E22.0334
G1 X42.776 Y20.583 E22.3717
G1 X43.126 Y21.756 E22.7100
G1 X43.377 Y22.953 E23.0484
G1 X43.528 Y24.168 E23.3867
G1 X43.580 Y25.422 E23.7337
G1 X43.580 Y80.357 E38.9219
G1 X43.529 Y81.494 E39.2365
G1 X43.381 Y82.588 E39.5419
G1 X43.135 Y83.665 E39.8471
G1 X42.794 Y84.715 E40.1525
G1 X42.360 Y85.730 E40.4577
G1 X41.836 Y86.703 E40.7631
G1 X41.228 Y87.624 E41.0684
G1 X40.539 Y88.488 E41.3737
G1 X39.776 Y89.286 E41.6790
G1 X38.945 Y90.013 E41.9843
G1 X38.051 Y90.662 E42.2896
G1 X37.103 Y91.228 E42.5949
G1 X36.108 Y91.707 E42.9002
G1 X35.075 Y92.095 E43.2055
G1 X34.010 Y92.389 E43.5108
G1 X32.923 Y92.586 E43.8162
G1 X31.824 Y92.685 E44.1214
G1 X30.720 Y92.685 E44.4267
G1 X29.620 Y92.586 E44.7321
G1 X28.533 Y92.389 E45.0374
G1 X27.469 Y92.095 E45.3427
G1 X26.435 Y91.707 E45.6480
G1 X25.440 Y91.228 E45.9533
G1 X24.492 Y90.662 E46.2586
G1 X23.598 Y90.013 E46.5639
G1 X22.767 Y89.286 E46.8692
G1 X22.004 Y88.488 E47.1745
G1 X21.315 Y87.624 E47.4798
G1 X20.707 Y86.703 E47.7851
G1 X20.184 Y85.730 E48.0904
G1 X19.750 Y84.715 E48.3957
G1 X19.408 Y83.665 E48.7011
G1 X19.163 Y82.588 E49.0064
G1 X19.014 Y81.494 E49.3117
G1 X18.963 Y80.357 E49.6263
G1 X18.963 Y40.428 E60.6656
G1 X19.015 Y39.406 E60.9486
G1 X19.163 Y38.431 E61.2212
G1 X19.408 Y37.476 E61.4938
G1 X19.751 Y36.543 E61.7687
G1 X19.831 Y36.375 E61.8200
G1 X20.178 Y35.666 E62.0383
G1 X20.698 Y34.825 E62.3116
G1 X21.298 Y34.043 E62.5842
G1 X21.973 Y33.324 E62.8568
G1 X22.717 Y32.677 E63.1294
G1 X23.522 Y32.109 E63.4019
G1 X24.399 Y31.613 E63.6803
G1 X24.563 Y31.536 E63.7305
G1 X25.277 Y31.229 E63.9454
G1 X26.221 Y30.923 E64.2197
G1 X27.185 Y30.715 E64.4922
G1 X28.164 Y30.605 E64.7648
G1 X29.180 Y30.594 E65.0457
G1 X29.351 Y30.602 E65.0929
G1 X30.358 Y30.715 E65.3733
G1 X31.322 Y30.923 E65.6458
G1 X32.266 Y31.229 E65.9201
G1 X32.980 Y31.536 E66.1350
G1 X33.144 Y31.613 E66.1852
G1 X34.021 Y32.109 E66.4635
G1 X34.826 Y32.678 E66.7361
G1 X35.570 Y33.324 E67.0087
G1 X36.248 Y34.045 E67.2823
G1 X36.729 Y34.667 E67.4997
G1 X36.839 Y34.815 E67.5506
G1 X37.363 Y35.664 E67.8265
G1 X37.795 Y36.551 E68.0991
G1 X38.135 Y37.476 E68.3717
G1 X38.380 Y38.432 E68.6445
G1 X38.501 Y39.217 E68.8641
G1 X38.528 Y39.403 E68.9162
G1 X38.580 Y40.428 E69.2000
G1 X38.580 Y65.557 E76.1475
G1 X37.772 Y65.557 E76.3710
G1 X37.772 Y40.345 E83.3414
G1 X37.709 Y39.305 E83.6295
G1 X37.513 Y38.236 E83.9300
G1 X37.189 Y37.198 E84.2306
G1 X36.743 Y36.207 E84.5312
G1 X36.181 Y35.276 E84.8317
G1 X35.510 Y34.421 E85.1323
G1 X34.741 Y33.652 E85.4329
G1 X33.886 Y32.982 E85.7334
G1 X32.955 Y32.419 E86.0340
G1 X31.964 Y31.973 E86.3346
G1 X30.926 Y31.649 E86.6351
G1 X29.857 Y31.454 E86.9357
G1 X28.772 Y31.388 E87.2363
G1 X27.686 Y31.454 E87.5368
G1 X26.617 Y31.649 E87.8374
G1 X25.579 Y31.973 E88.1380
G1 X24.588 Y32.419 E88.4385
G1 X23.657 Y32.982 E88.7391
G1 X22.802 Y33.652 E89.0397
G1 X22.033 Y34.421 E89.3403
G1 X21.362 Y35.276 E89.6408
G1 X20.800 Y36.207 E89.9414
G1 X20.354 Y37.198 E90.2420
G1 X20.030 Y38.236 E90.5425
G1 X19.834 Y39.305 E90.8431
G1 X19.772 Y40.345 E91.1311
G1 X19.772 Y80.430 E102.2135
G1 X19.833 Y81.593 E102.5355
G1 X20.021 Y82.782 E102.8683
G1 X20.332 Y83.945 E103.2012
G1 X20.764 Y85.069 E103.5341
G1 X21.311 Y86.142 E103.8669
G1 X21.966 Y87.151 E104.1998
G1 X22.724 Y88.087 E104.5326
G1 X23.575 Y88.938 E104.8655
G1 X24.511 Y89.696 E105.1984
G1 X25.521 Y90.352 E105.5312
G1 X26.593 Y90.898 E105.8641
G1 X27.717 Y91.330 E106.1969
G1 X28.880 Y91.641 E106.5298
G1 X30.069 Y91.830 E106.8627
G1 X31.272 Y91.893 E107.1955
G1 X32.474 Y91.830 E107.5284
G1 X33.663 Y91.641 E107.8612
G1 X34.826 Y91.330 E108.1941
G1 X35.950 Y90.898 E108.5270
G1 X37.023 Y90.352 E108.8598
G1 X38.032 Y89.696 E109.1927
G1 X38.968 Y88.938 E109.5255
G1 X39.819 Y88.087 E109.8584
G1 X40.577 Y87.151 E110.1912
G1 X41.233 Y86.142 E110.5241
G1 X41.779 Y85.069 E110.8570
G1 X42.211 Y83.945 E111.1898
G1 X42.522 Y82.782 E111.5227
G1 X42.711 Y81.593 E111.8555
G1 X42.772 Y80.430 E112.1775
G1 X42.772 Y25.355 E127.4044
G1 X42.710 Y24.060 E127.7629
G1 X42.520 Y22.741 E128.1313
G1 X42.206 Y21.446 E128.4997
G1 X41.770 Y20.187 E128.8681
G1 X41.217 Y18.975 E129.2365
G1 X40.551 Y17.821 E129.6048
G1 X39.778 Y16.735 E129.9732
G1 X38.905 Y15.728 E130.3416
G1 X37.941 Y14.809 E130.7100
G1 X36.893 Y13.985 E131.0784
G1 X35.772 Y13.265 E131.4468
G1 X34.588 Y12.654 E131.8152
G1 X33.351 Y12.159 E132.1836
G1 X32.073 Y11.784 E132.5520
G1 X30.764 Y11.531 E132.9204
G1 X29.438 Y11.405 E133.2888
G1 X28.105 Y11.405 E133.6571
G1 X26.779 Y11.531 E134.0255
G1 X25.471 Y11.784 E134.3939
G1 X24.192 Y12.159 E134.7623
G1 X22.955 Y12.654 E135.1307
G1 X21.771 Y13.265 E135.4991
G1 X20.650 Y13.985 E135.8675
G1 X19.602 Y14.809 E136.2359
G1 X18.638 Y15.728 E136.6043
G1 X17.765 Y16.735 E136.9727
G1 X16.993 Y17.821 E137.3410
G1 X16.326 Y18.975 E137.7094
G1 X15.773 Y20.187 E138.0778
G1 X15.337 Y21.446 E138.4462
G1 X15.023 Y22.741 E138.8146
G1 X14.833 Y24.060 E139.1830
G1 X14.772 Y25.355 E139.5415
G1 X14.772 Y63.891 E150.1957
; feature outer perimeter
G1 X15.239 Y64.891 F4800
G92 E0.0000
G1 X13.509 Y64.891 E0.4782 F612
G1 X13.344 Y64.869 E0.5243
G1 X13.220 Y64.819 E0.5612
G1 X13.115 Y64.739 E0.5977
G1 X13.035 Y64.637 E0.6336
G1 X12.985 Y64.518 E0.6692
G1 X12.963 Y64.357 E0.7141
G1 X12.963 Y25.401 E11.4846
G1 X13.018 Y24.085 E11.8486
G1 X13.179 Y22.789 E12.2098
G1 X13.447 Y21.510 E12.5711
G1 X13.820 Y20.258 E12.9323
G1 X14.295 Y19.041 E13.2935
G1 X14.869 Y17.867 E13.6548
G1 X15.538 Y16.745 E14.0159
G1 X16.297 Y15.681 E14.3772
G1 X17.141 Y14.684 E14.7384
G1 X18.065 Y13.760 E15.0996
G1 X19.062 Y12.916 E15.4608
G1 X20.125 Y12.157 E15.8220
G1 X21.248 Y11.488 E16.1833
G1 X22.422 Y10.914 E16.5445
G1 X23.639 Y10.439 E16.9057
G1 X24.891 Y10.066 E17.2669
G1 X26.170 Y9.798 E17.6282
G1 X27.466 Y9.637 E17.9894
G1 X28.772 Y9.583 E18.3506
G1 X30.077 Y9.637 E18.7118
G1 X31.373 Y9.798 E19.0730
G1 X32.652 Y10.066 E19.4343
G1 X33.904 Y10.439 E19.7955
G1 X35.122 Y10.914 E20.1567
G1 X36.295 Y11.488 E20.5179
G1 X37.418 Y12.157 E20.8792
G1 X38.481 Y12.916 E21.2404
G1 X39.478 Y13.760 E21.6016
G1 X40.402 Y14.684 E21.9628
G1 X41.246 Y15.681 E22.3241
G1 X42.005 Y16.744 E22.6852
G1 X42.158 Y17.000 E22.7675
G1 X42.674 Y17.867 E23.0465
G1 X43.248 Y19.041 E23.4077
G1 X43.723 Y20.258 E23.7689
G1 X44.096 Y21.510 E24.1301
G1 X44.364 Y22.789 E24.4914
G1 X44.526 Y24.085 E24.8526
G1 X44.580 Y25.401 E25.2166
G1 X44.580 Y80.379 E40.4168
G1 X44.526 Y81.584 E40.7501
G1 X44.366 Y82.767 E41.0802
G1 X44.100 Y83.931 E41.4103
G1 X43.731 Y85.067 E41.7405
G1 X43.262 Y86.165 E42.0706
G1 X42.696 Y87.216 E42.4008
G1 X42.038 Y88.213 E42.7309
G1 X41.293 Y89.146 E43.0610
G1 X40.468 Y90.009 E43.3912
G1 X39.569 Y90.795 E43.7213
G1 X38.603 Y91.497 E44.0515
G1 X37.578 Y92.109 E44.3816
G1 X36.502 Y92.628 E44.7117
G1 X35.384 Y93.047 E45.0419
G1 X34.233 Y93.365 E45.3720
G1 X33.058 Y93.578 E45.7022
G1 X31.869 Y93.685 E46.0323
G1 X30.675 Y93.685 E46.3624
G1 X29.485 Y93.578 E46.6926
G1 X28.310 Y93.365 E47.0228
G1 X27.159 Y93.047 E47.3529
G1 X26.041 Y92.628 E47.6830
G1 X24.965 Y92.109 E48.0132
G1 X23.940 Y91.497 E48.3433
G1 X22.974 Y90.795 E48.6734
G1 X22.075 Y90.009 E49.0036
G1 X21.250 Y89.146 E49.3337
G1 X20.505 Y88.213 E49.6639
G1 X19.848 Y87.216 E49.9940
G1 X19.282 Y86.165 E50.3242
G1 X18.812 Y85.067 E50.6543
G1 X18.443 Y83.931 E50.9844
G1 X18.178 Y82.767 E51.3146
G1 X18.017 Y81.584 E51.6447
G1 X17.963 Y80.379 E51.9780
G1 X17.963 Y40.403 E63.0303
G1 X18.019 Y39.305 E63.3343
G1 X18.182 Y38.231 E63.6347
G1 X18.452 Y37.178 E63.9352
G1 X18.828 Y36.156 E64.2364
G1 X18.930 Y35.941 E64.3021
G1 X19.302 Y35.182 E64.5358
G1 X19.874 Y34.257 E64.8365
G1 X20.535 Y33.394 E65.1369
G1 X21.279 Y32.603 E65.4373
G1 X22.099 Y31.890 E65.7377
G1 X22.986 Y31.263 E66.0382
G1 X23.938 Y30.725 E66.3405
G1 X24.152 Y30.624 E66.4057
G1 X24.925 Y30.292 E66.6384
G1 X25.961 Y29.957 E66.9394
G1 X27.023 Y29.727 E67.2398
G1 X28.103 Y29.606 E67.5402
G1 X29.199 Y29.593 E67.8433
G1 X29.431 Y29.605 E67.9076
G1 X30.520 Y29.727 E68.2106
G1 X31.582 Y29.957 E68.5110
G1 X32.618 Y30.292 E68.8120
G1 X33.391 Y30.624 E69.0446
G1 X33.605 Y30.725 E69.1099
G1 X34.557 Y31.263 E69.4122
G1 X35.444 Y31.890 E69.7127
G1 X36.264 Y32.603 E70.0131
G1 X37.009 Y33.395 E70.3138
G1 X37.526 Y34.063 E70.5473
G1 X37.667 Y34.253 E70.6128
G1 X38.241 Y35.181 E70.9144
G1 X38.716 Y36.159 E71.2148
G1 X39.091 Y37.178 E71.5153
G1 X39.361 Y38.231 E71.8158
G1 X39.490 Y39.068 E72.0498
G1 X39.525 Y39.304 E72.1159
G1 X39.580 Y40.403 E72.4201
G1 X39.580 Y66.024 E79.5035
G1 X39.558 Y66.185 E79.5485
G1 X39.508 Y66.304 E79.5841
G1 X39.428 Y66.406 E79.6200
G1 X39.332 Y66.479 E79.6534
G1 X39.196 Y66.536 E79.6941
G1 X39.034 Y66.557 E79.7394
G1 X37.304 Y66.557 E80.2175
G1 X37.143 Y66.536 E80.2625
G1 X37.024 Y66.487 E80.2982
G1 X36.921 Y66.408 E80.3340
